!!!OTL: 1493. Die einsame Schaeferin.
!!!ARE: Europa, Mitteleuropa, Deutschland, Franken, Wonfort
!!!SCT: E1493
!!!TXL: @@DE
!!!YEM: Copyright 1995, estate of Helmut Schaffrath.
**kern	**text
*ICvox	*
*M3/4	*
*k[f#]	*
*G:	*
!LO:TX:a:t=Mäßig langsam.	!
!LO:TX:a:t=Aus Franken.	!
{4d	O
=1	=1
4g	Schä-
4g	-fer,
4b	wo
=2	=2
4a	ge-
4g	-heſt
4a	du
=3	=3
2b}	hin?
{4g	was
=4	=4
(4.a	füh-
8b)	-reſt
8ccL	du
8eeJ	.
=5	=5
4dd	Neu-
4g	-es
8bL	im
8aJ	.
=6	=6
2g}	Sinn?
{4d	Du
=7	=7
4g	ge-
4g	-heſt
4b	auf
=8	=8
4a	an-
4g	-de-
4a	-re
=9	=9
2b}	Heid,
{4g	und
=10	=10
(4.a	füh-
8b)	-reſt
8ccL	dei-
8eeJ	-ne
=11	=11
4dd	Schäf-
4g	-lein
8bL	ʒur
8aJ	.
=12	=12
2g}	Weid.
{4b	Du
=13	=13
8bL	könnt'ſt
8aJ	.
4g	ja
8aL	bei
8bJ	.
=14	=14
4cc	mir
8bL	verbleibn,
8ccJ	.
4a}	.
=15	=15
{4a	könnt'ſt
8aL	dei-
8ddJ	.
4dd	-ne
=16	=16
4.b	Ʒeit
8a	ver-
4g;}	-treib'n;
=17	=17
{4.g	a-
8a	-ber
4b/	dies
=18	=18
4a	haſt
4f#	du
8aL	nicht
8ccJ	er-
=19	=19
2b}	-kennt,
{4g	die-
=20	=20
(4.a	-weil
8b)	du
8ccL	von
8eeJ	der
=21	=21
4dd	Lie-
4g	-be
8bL	ver-
8aJ	.
=22	=22
2g}	-blendt.
==	==
!!!AGN: Staende - Lied, Hirten -,  Schaefer - Lied
!!!ONB: ESAC (Essen Associative Code) Database: ERK3
!!!AMT: simple triple
!!!AIN: vox
!!!EED: Helmut Schaffrath
!!!EEV: 1.0
!!!GTL: Staendelieder (Berufslieder). 3. Hirtenlieder. Schaeferlieder.
!!!URL-scan: https://rosdok.uni-rostock.de/mcrviewer/recordIdentifier/rosdok_ppn745177999/iview2/phys_0349.iview2?x=-128.77276441889285&y=663.0875133404043&scale=0.5870222003877487&rotation=0&layout=singlePageLayout
!!!ENC: Anna Maria Matuszewska
!!!EEV: 2025/03/01
*-	*-
